Numix-GalliumOS/16/status/polly-normal.svg

<?xml version="1.0" encoding="UTF-8" standalone="no"?>
<svg
   xmlns:dc="http://purl.org/dc/elements/1.1/"
   xmlns:cc="http://creativecommons.org/ns#"
   xmlns:rdf="http://www.w3.org/1999/02/22-rdf-syntax-ns#"
   xmlns:svg="http://www.w3.org/2000/svg"
   xmlns="http://www.w3.org/2000/svg"
   xmlns:sodipodi="http://sodipodi.sourceforge.net/DTD/sodipodi-0.dtd"
   xmlns:inkscape="http://www.inkscape.org/namespaces/inkscape"
   width="16"
   height="16"
   viewBox="0 0 16 16"
   id="svg3024"
   version="1.1"
   inkscape:version="0.91 r"
   sodipodi:docname="polly-normal.svg">
  <metadata
     id="metadata3034">
    <rdf:RDF>
      <cc:Work
         rdf:about="">
        <dc:format>image/svg+xml</dc:format>
        <dc:type
           rdf:resource="http://purl.org/dc/dcmitype/StillImage" />
      </cc:Work>
    </rdf:RDF>
  </metadata>
  <defs
     id="defs3032" />
  <sodipodi:namedview
     pagecolor="#ffffff"
     bordercolor="#666666"
     borderopacity="1"
     objecttolerance="10"
     gridtolerance="10"
     guidetolerance="10"
     inkscape:pageopacity="0"
     inkscape:pageshadow="2"
     inkscape:window-width="688"
     inkscape:window-height="480"
     id="namedview3030"
     showgrid="false"
     inkscape:zoom="14.75"
     inkscape:cx="8"
     inkscape:cy="8"
     inkscape:window-x="0"
     inkscape:window-y="0"
     inkscape:window-maximized="0"
     inkscape:current-layer="svg3024" />
  <path
     style="fill:#ececec;fill-opacity:1"
     d="M 10.449219 2.398438 C 9.316406 2.375 7.980469 2.675781 6.636719 3.332031 C 4.773438 4.242188 3.378906 5.664062 2.742188 7.207031 C 2.566406 7.128906 2.375 7.023438 2.179688 6.894531 C 1.261719 6.292969 0.761719 5.394531 0.761719 5.394531 C 0.761719 5.394531 0.523438 7.183594 1.285156 8.269531 C 1.675781 8.832031 2.082031 9.1875 2.386719 9.394531 C 2.429688 9.890625 2.550781 10.378906 2.78125 10.851562 C 4.09375 13.539062 7.84375 14.40625 11.15625 12.789062 C 13.433594 11.679688 13.972656 9.941406 13.90625 7.75 C 14.054688 7.648438 14.175781 7.550781 14.28125 7.4375 C 14.339844 7.457031 14.40625 7.476562 14.445312 7.5 C 14.84375 7.753906 14.945312 8.25 14.945312 8.25 C 14.945312 8.25 15.53125 7.023438 15.132812 5.980469 C 14.855469 5.242188 14.144531 4.917969 13.59375 4.832031 C 13.574219 4.722656 13.570312 4.613281 13.550781 4.5 C 13.335938 3.15625 12.105469 2.425781 10.449219 2.398438 Z M 4.40625 3.042969 C 4.40625 3.042969 3.726562 3.542969 3.449219 4.292969 C 3.449219 4.292969 3.78125 4.917969 3.78125 4.917969 C 3.78125 4.917969 3.863281 4.796875 4.324219 4.519531 C 4.238281 3.753906 4.40625 3.042969 4.40625 3.042969 Z M 10.476562 3.183594 C 11.035156 3.183594 11.332031 3.570312 11.332031 4.070312 C 11.332031 4.570312 11.003906 4.894531 10.476562 4.894531 C 9.953125 4.894531 9.582031 4.667969 9.582031 4.039062 C 9.582031 3.410156 9.921875 3.183594 10.476562 3.183594 Z M 2.492188 3.605469 C 2.492188 3.605469 1.785156 4.621094 1.761719 5.769531 C 1.761719 5.777344 2.53125 6.457031 2.53125 6.457031 C 2.53125 6.457031 2.59375 6.21875 3.117188 5.605469 C 2.617188 4.625 2.492188 3.605469 2.492188 3.605469 Z M 12.363281 4.644531 C 12.390625 4.644531 12.386719 4.644531 12.40625 4.644531 C 12.25 4.691406 11.914062 4.875 11.699219 5.5 C 11.507812 6.050781 11.574219 6.457031 11.574219 6.457031 C 11.574219 6.457031 10.8125 6.925781 10.78125 7.855469 C 10.761719 8.300781 10.925781 8.792969 11.96875 8.730469 C 12.324219 8.761719 13.550781 8.144531 13.550781 8.144531 C 13.550781 8.144531 12 9.519531 10.8125 9.21875 C 9.90625 8.988281 9.902344 8.300781 9.875 7.992188 C 9.8125 7.261719 10.6875 6.46875 10.6875 6.46875 C 10.6875 6.46875 10.617188 5.617188 10.949219 5.222656 C 11.597656 4.414062 12.132812 4.679688 12.363281 4.644531 Z "
     id="path3028" />
</svg>

<svg xmlns="http://www.w3.org/2000/svg" viewBox="0 0 16 16">
 <path d="m 10.449 2.398 c -1.133 -0.023 -2.469 0.277 -3.812 0.934 c -1.863 0.91 -3.258 2.332 -3.895 3.875 c -0.176 -0.078 -0.367 -0.184 -0.563 -0.313 c -0.918 -0.602 -1.418 -1.5 -1.418 -1.5 c 0 0 -0.238 1.789 0.523 2.875 c 0.391 0.563 0.797 0.918 1.102 1.125 c 0.043 0.496 0.164 0.984 0.395 1.457 c 1.313 2.688 5.063 3.555 8.375 1.938 c 2.277 -1.109 2.816 -2.848 2.75 -5.04 c 0.148 -0.102 0.27 -0.199 0.375 -0.313 c 0.059 0.02 0.125 0.039 0.164 0.063 c 0.398 0.254 0.5 0.75 0.5 0.75 c 0 0 0.586 -1.227 0.188 -2.27 c -0.277 -0.738 -0.988 -1.063 -1.539 -1.148 c -0.02 -0.109 -0.023 -0.219 -0.043 -0.332 c -0.215 -1.344 -1.445 -2.074 -3.102 -2.102 m -6.04 0.645 c 0 0 -0.68 0.5 -0.957 1.25 c 0 0 0.332 0.625 0.332 0.625 c 0 0 0.082 -0.121 0.543 -0.398 c -0.086 -0.766 0.082 -1.477 0.082 -1.477 m 6.07 0.141 c 0.559 0 0.855 0.387 0.855 0.887 c 0 0.5 -0.328 0.824 -0.855 0.824 c -0.523 0 -0.895 -0.227 -0.895 -0.855 c 0 -0.629 0.34 -0.855 0.895 -0.855 m -7.984 0.422 c 0 0 -0.707 1.016 -0.73 2.164 c 0 0.008 0.77 0.688 0.77 0.688 c 0 0 0.063 -0.238 0.586 -0.852 c -0.5 -0.98 -0.625 -2 -0.625 -2 m 9.871 1.039 c 0.027 0 0.023 0 0.043 0 c -0.156 0.047 -0.492 0.23 -0.707 0.855 c -0.191 0.551 -0.125 0.957 -0.125 0.957 c 0 0 -0.762 0.469 -0.793 1.398 c -0.02 0.445 0.145 0.937 1.188 0.875 c 0.355 0.031 1.582 -0.586 1.582 -0.586 c 0 0 -1.551 1.375 -2.738 1.074 c -0.906 -0.23 -0.91 -0.918 -0.938 -1.227 c -0.063 -0.73 0.813 -1.523 0.813 -1.523 c 0 0 -0.07 -0.852 0.262 -1.246 c 0.648 -0.809 1.184 -0.543 1.414 -0.578 Z" style="fill:#ececec;fill-opacity:1"/>
</svg>
